flaticon/constructions/wrench-6.svg

<svg xmlns="http://www.w3.org/2000/svg" width="32" height="32" viewBox="0 0 24 24">
    <path d="M 22.617188 18.152344 C 22.113281 17.796875 21.527344 17.609375 20.9375 17.582031 C 18.777344 16.164062 17.363281 15.097656 16.53125 14.269531 L 14.25 11.988281 L 16.53125 9.742188 C 18.011719 8.261719 19.414062 7.21875 20.976562 6.417969 C 20.980469 6.417969 20.988281 6.414062 20.996094 6.410156 C 21.761719 6.359375 22.507812 6.046875 23.019531 5.5 C 23.699219 4.816406 24.019531 3.855469 23.9375 2.894531 C 23.9375 2.773438 23.859375 2.65625 23.738281 2.574219 C 23.617188 2.496094 23.457031 2.496094 23.339844 2.574219 L 21.375 3.738281 C 20.855469 3.496094 20.535156 2.976562 20.574219 2.375 L 22.496094 1.253906 C 22.617188 1.214844 22.699219 1.054688 22.699219 0.933594 C 22.699219 0.773438 22.617188 0.652344 22.496094 0.574219 C 21.054688 -0.386719 19.132812 0.0117188 18.132812 1.414062 C 17.78125 1.914062 17.589844 2.492188 17.5625 3.074219 C 16.761719 4.589844 15.722656 6.023438 14.289062 7.460938 L 12.003906 9.742188 L 9.722656 7.460938 C 8.246094 5.984375 7.203125 4.585938 6.40625 3.027344 C 6.363281 2.238281 6.046875 1.503906 5.476562 0.933594 C 4.796875 0.253906 3.835938 -0.0664062 2.875 0.0117188 C 2.753906 0.0507812 2.632812 0.132812 2.59375 0.210938 C 2.515625 0.332031 2.515625 0.492188 2.59375 0.613281 L 3.714844 2.613281 C 3.476562 3.136719 2.914062 3.457031 2.355469 3.417969 L 1.191406 1.492188 C 1.152344 1.375 0.992188 1.292969 0.871094 1.292969 C 0.753906 1.253906 0.632812 1.332031 0.550781 1.453125 C -0.410156 2.894531 -0.046875 4.816406 1.394531 5.820312 C 1.890625 6.171875 2.449219 6.371094 3.015625 6.410156 C 3.023438 6.414062 3.027344 6.417969 3.035156 6.417969 C 4.597656 7.21875 6 8.261719 7.441406 9.664062 L 9.722656 11.945312 L 7.441406 14.230469 C 6.597656 15.070312 5.117188 16.152344 2.957031 17.59375 C 2.203125 17.652344 1.5 17.964844 0.953125 18.511719 C 0.273438 19.195312 -0.046875 20.15625 0.03125 21.117188 C 0.03125 21.238281 0.113281 21.355469 0.230469 21.4375 C 0.351562 21.515625 0.511719 21.515625 0.632812 21.4375 L 2.59375 20.277344 C 3.113281 20.554688 3.433594 21.078125 3.394531 21.675781 L 1.472656 22.796875 C 1.351562 22.839844 1.273438 22.957031 1.273438 23.117188 C 1.273438 23.277344 1.351562 23.398438 1.472656 23.480469 C 2.035156 23.839844 2.632812 24 3.234375 24 C 4.234375 24 5.199219 23.519531 5.839844 22.597656 C 6.214844 22.0625 6.40625 21.4375 6.414062 20.8125 C 7.808594 18.691406 8.859375 17.292969 9.683594 16.472656 L 11.964844 14.1875 L 14.246094 16.472656 C 14.542969 16.769531 14.871094 17.144531 15.230469 17.601562 C 15.253906 17.65625 15.285156 17.707031 15.328125 17.753906 C 15.351562 17.773438 15.371094 17.792969 15.394531 17.808594 C 15.644531 18.132812 15.914062 18.496094 16.199219 18.898438 C 16.21875 18.945312 16.25 18.992188 16.289062 19.035156 C 16.296875 19.039062 16.300781 19.046875 16.308594 19.050781 C 16.703125 19.613281 17.136719 20.242188 17.605469 20.949219 C 17.648438 21.734375 17.964844 22.46875 18.53125 23.039062 C 19.132812 23.640625 19.933594 23.960938 20.777344 23.960938 C 20.894531 23.960938 21.015625 23.960938 21.097656 23.960938 C 21.214844 23.960938 21.335938 23.878906 21.417969 23.757812 C 21.496094 23.640625 21.496094 23.480469 21.417969 23.359375 L 20.253906 21.398438 C 20.535156 20.875 21.054688 20.554688 21.65625 20.597656 L 22.777344 22.519531 C 22.816406 22.636719 22.976562 22.71875 23.097656 22.71875 C 23.257812 22.679688 23.378906 22.636719 23.457031 22.519531 C 24.417969 21.078125 24.019531 19.15625 22.617188 18.152344 Z M 5.199219 22.15625 C 4.597656 23 3.515625 23.359375 2.554688 23.078125 L 3.996094 22.238281 C 4.117188 22.15625 4.195312 22.039062 4.195312 21.917969 L 4.195312 21.71875 C 4.277344 20.796875 3.753906 19.957031 2.953125 19.554688 L 2.753906 19.476562 C 2.632812 19.394531 2.515625 19.394531 2.394531 19.476562 L 0.871094 20.355469 C 0.953125 19.875 1.191406 19.433594 1.554688 19.074219 C 2.074219 18.59375 2.753906 18.3125 3.476562 18.394531 C 4.082031 18.460938 4.632812 18.757812 5.03125 19.207031 C 5.089844 19.28125 5.144531 19.355469 5.199219 19.433594 C 5.4375 19.796875 5.597656 20.234375 5.597656 20.714844 C 5.597656 20.769531 5.605469 20.8125 5.621094 20.855469 C 5.609375 21.3125 5.46875 21.769531 5.199219 22.15625 Z M 9.160156 15.992188 C 8.402344 16.710938 7.445312 17.949219 6.246094 19.742188 C 6.15625 19.480469 6.035156 19.230469 5.878906 18.996094 C 5.464844 18.40625 4.898438 17.96875 4.246094 17.746094 C 4.554688 17.542969 4.871094 17.324219 5.1875 17.105469 L 5.757812 17.671875 C 5.839844 17.753906 5.917969 17.792969 6.039062 17.792969 C 6.160156 17.792969 6.277344 17.753906 6.320312 17.671875 C 6.480469 17.511719 6.480469 17.273438 6.320312 17.113281 L 5.84375 16.636719 C 6.078125 16.46875 6.308594 16.296875 6.53125 16.125 L 6.917969 16.511719 C 7 16.589844 7.078125 16.632812 7.199219 16.632812 C 7.28125 16.632812 7.398438 16.589844 7.480469 16.511719 C 7.640625 16.351562 7.640625 16.109375 7.480469 15.949219 L 7.15625 15.625 C 7.480469 15.355469 7.78125 15.089844 8.039062 14.828125 L 10.324219 12.585938 L 11.445312 13.707031 Z M 18.8125 1.855469 C 19.292969 1.171875 20.015625 0.8125 20.777344 0.8125 C 21.015625 0.8125 21.257812 0.851562 21.417969 0.894531 L 19.972656 1.734375 C 19.855469 1.8125 19.773438 1.933594 19.773438 2.054688 L 19.773438 2.253906 C 19.734375 3.175781 20.214844 4.015625 21.015625 4.417969 L 21.257812 4.539062 C 21.375 4.617188 21.496094 4.617188 21.617188 4.539062 L 23.136719 3.65625 C 23.058594 4.136719 22.816406 4.578125 22.457031 4.9375 C 22.011719 5.351562 21.445312 5.613281 20.835938 5.628906 C 20.804688 5.621094 20.773438 5.617188 20.734375 5.617188 C 20.550781 5.617188 20.367188 5.597656 20.195312 5.554688 C 19.613281 5.402344 19.109375 5.042969 18.773438 4.539062 C 18.253906 3.738281 18.253906 2.65625 18.8125 1.855469 Z M 14.847656 8.019531 C 16.039062 6.832031 16.992188 5.640625 17.75 4.335938 C 17.835938 4.574219 17.949219 4.804688 18.09375 5.019531 C 18.476562 5.566406 18.992188 5.984375 19.589844 6.21875 C 18.371094 6.972656 17.191406 7.921875 15.96875 9.144531 L 13.6875 11.425781 L 12.566406 10.304688 Z M 0.914062 2.535156 L 1.753906 3.976562 C 1.832031 4.097656 1.953125 4.175781 2.074219 4.175781 L 2.273438 4.175781 C 3.195312 4.21875 4.035156 3.738281 4.4375 2.933594 L 4.515625 2.734375 C 4.597656 2.613281 4.597656 2.496094 4.515625 2.375 L 3.636719 0.851562 C 4.117188 0.933594 4.554688 1.171875 4.917969 1.535156 C 5.328125 1.980469 5.59375 2.546875 5.609375 3.15625 C 5.601562 3.183594 5.597656 3.21875 5.597656 3.257812 C 5.597656 3.441406 5.574219 3.621094 5.535156 3.796875 C 5.382812 4.375 5.019531 4.882812 4.515625 5.21875 C 3.714844 5.738281 2.632812 5.738281 1.832031 5.179688 C 0.992188 4.578125 0.632812 3.496094 0.914062 2.535156 Z M 12.332031 13.476562 C 12.3125 13.429688 12.285156 13.386719 12.246094 13.347656 L 10.5625 11.664062 C 10.519531 11.625 10.480469 11.59375 10.429688 11.574219 L 8.039062 9.183594 C 6.839844 7.941406 5.636719 6.980469 4.355469 6.21875 C 4.554688 6.140625 4.796875 6.019531 4.957031 5.898438 C 5.417969 5.589844 5.761719 5.210938 6.003906 4.761719 C 6.082031 4.628906 6.148438 4.488281 6.203125 4.34375 C 6.964844 5.625 7.921875 6.78125 9.160156 8.019531 L 11.660156 10.503906 C 11.675781 10.53125 11.699219 10.558594 11.726562 10.585938 L 13.40625 12.265625 C 13.441406 12.300781 13.476562 12.328125 13.511719 12.347656 L 16.011719 14.828125 C 16.730469 15.589844 17.96875 16.546875 19.761719 17.746094 C 19.5 17.832031 19.25 17.957031 19.011719 18.113281 C 18.421875 18.527344 17.988281 19.089844 17.765625 19.746094 C 17.535156 19.40625 17.3125 19.085938 17.097656 18.785156 L 17.652344 18.234375 C 17.8125 18.074219 17.8125 17.832031 17.652344 17.671875 C 17.492188 17.511719 17.25 17.511719 17.089844 17.671875 L 16.628906 18.136719 C 16.460938 17.910156 16.300781 17.699219 16.144531 17.496094 L 16.53125 17.113281 C 16.691406 16.953125 16.691406 16.710938 16.53125 16.550781 C 16.371094 16.390625 16.128906 16.390625 15.96875 16.550781 L 15.644531 16.875 C 15.359375 16.53125 15.09375 16.234375 14.847656 15.992188 Z M 23.058594 21.4375 L 22.21875 19.996094 C 22.136719 19.875 22.015625 19.796875 21.898438 19.796875 L 21.695312 19.796875 C 20.777344 19.714844 19.933594 20.234375 19.535156 21.035156 L 19.453125 21.238281 C 19.375 21.355469 19.375 21.476562 19.453125 21.597656 L 20.335938 23.117188 C 19.855469 23.039062 19.414062 22.796875 19.054688 22.4375 C 18.648438 22 18.386719 21.445312 18.363281 20.851562 C 18.367188 20.824219 18.371094 20.792969 18.371094 20.757812 C 18.371094 19.957031 18.773438 19.234375 19.453125 18.792969 C 19.8125 18.554688 20.253906 18.394531 20.734375 18.394531 C 20.800781 18.394531 20.855469 18.382812 20.902344 18.359375 C 21.339844 18.382812 21.773438 18.539062 22.136719 18.792969 C 22.976562 19.394531 23.339844 20.476562 23.058594 21.4375 Z M 23.058594 21.4375"/>
</svg>

<svg xmlns="http://www.w3.org/2000/svg" width="32" height="32" viewBox="0 0 24 24">
    <path d="M22.617 18.152a3.163 3.163 0 0 0-1.68-.57c-2.16-1.418-3.574-2.484-4.406-3.312l-2.281-2.282 2.281-2.246c1.48-1.48 2.883-2.523 4.446-3.324.003 0 .011-.004.02-.008.765-.05 1.51-.363 2.023-.91.68-.684 1-1.645.918-2.605 0-.122-.079-.239-.2-.32a.368.368 0 0 0-.398 0l-1.965 1.163a1.38 1.38 0 0 1-.8-1.363l1.921-1.121c.121-.04.203-.2.203-.32a.417.417 0 0 0-.203-.36c-1.441-.96-3.363-.562-4.363.84a3.144 3.144 0 0 0-.57 1.66c-.801 1.516-1.84 2.95-3.274 4.387l-2.285 2.281-2.281-2.281c-1.477-1.477-2.52-2.875-3.317-4.434a3.172 3.172 0 0 0-.93-2.093c-.68-.68-1.64-1-2.601-.922-.121.039-.242.12-.281.199a.375.375 0 0 0 0 .402l1.12 2c-.237.524-.8.844-1.359.805L1.191 1.492c-.039-.117-.199-.199-.32-.199-.117-.04-.238.039-.32.16a3.159 3.159 0 0 0 .844 4.367 3.18 3.18 0 0 0 1.62.59c.008.004.012.008.02.008 1.563.8 2.965 1.844 4.406 3.246l2.282 2.281L7.44 14.23c-.843.84-2.324 1.922-4.484 3.364a3.154 3.154 0 0 0-2.004.918c-.68.683-1 1.644-.922 2.605 0 .121.082.238.2.32a.375.375 0 0 0 .402 0l1.96-1.16c.52.278.84.801.802 1.399l-1.922 1.12c-.121.044-.2.161-.2.321s.079.281.2.363c.562.36 1.16.52 1.761.52 1 0 1.965-.48 2.606-1.402a3.18 3.18 0 0 0 .574-1.785c1.395-2.122 2.445-3.52 3.27-4.34l2.28-2.285 2.282 2.285c.297.297.625.672.984 1.129a.532.532 0 0 0 .098.152c.024.02.043.039.067.055.25.324.52.687.804 1.09.02.046.051.093.09.136.008.004.012.012.02.016a86.81 86.81 0 0 1 1.296 1.898c.043.785.36 1.52.926 2.09a3.152 3.152 0 0 0 2.246.922h.32c.118 0 .239-.082.321-.203a.368.368 0 0 0 0-.399l-1.164-1.96c.281-.524.8-.844 1.402-.801l1.121 1.922c.04.117.2.199.32.199.16-.04.282-.082.36-.2.961-1.44.563-3.363-.84-4.367zM5.2 22.156a2.436 2.436 0 0 1-2.644.922l1.441-.84c.121-.082.2-.199.2-.32v-.2c.081-.921-.442-1.761-1.243-2.163l-.2-.078a.293.293 0 0 0-.358 0l-1.524.878c.082-.48.32-.921.684-1.28.52-.481 1.199-.762 1.922-.68a2.439 2.439 0 0 1 1.554.812c.059.074.114.148.168.227.239.363.399.8.399 1.28 0 .056.007.099.023.141a2.385 2.385 0 0 1-.422 1.301zm3.961-6.164c-.758.719-1.715 1.957-2.914 3.75a3.23 3.23 0 0 0-.367-.746 3.311 3.311 0 0 0-1.633-1.25c.309-.203.625-.422.941-.64l.57.566c.083.082.161.121.282.121.121 0 .238-.04.281-.121a.385.385 0 0 0 0-.559l-.476-.476c.234-.168.465-.34.687-.512l.387.387c.082.078.16.12.281.12.082 0 .2-.042.281-.12a.39.39 0 0 0 0-.563l-.324-.324c.324-.27.625-.535.883-.797l2.285-2.242 1.121 1.121zm9.652-14.137c.481-.683 1.204-1.042 1.965-1.042.239 0 .48.039.641.082l-1.445.84c-.118.077-.2.199-.2.32v.199c-.039.922.442 1.762 1.243 2.164l.242.121a.305.305 0 0 0 .36 0l1.519-.883c-.078.48-.32.922-.68 1.281-.445.415-1.012.676-1.621.692a.403.403 0 0 0-.102-.012c-.183 0-.367-.02-.539-.062a2.452 2.452 0 0 1-1.422-1.016 2.43 2.43 0 0 1 .04-2.684zM14.848 8.02c1.191-1.188 2.144-2.38 2.902-3.684.086.238.2.469.344.684a3.31 3.31 0 0 0 1.496 1.199c-1.219.754-2.399 1.703-3.621 2.926l-2.281 2.28-1.122-1.12zM.914 2.535l.84 1.442c.078.12.2.199.32.199h.2c.921.043 1.761-.438 2.163-1.242l.079-.2a.293.293 0 0 0 0-.359L3.636.852c.481.082.919.32 1.282.683.41.445.676 1.012.691 1.621a.382.382 0 0 0-.011.102c0 .183-.024.363-.063.539a2.47 2.47 0 0 1-1.02 1.422c-.8.52-1.882.52-2.683-.04a2.44 2.44 0 0 1-.918-2.644zm11.418 10.942a.392.392 0 0 0-.086-.13l-1.684-1.683a.42.42 0 0 0-.132-.09l-2.39-2.39C6.84 7.94 5.636 6.98 4.354 6.219c.2-.078.442-.2.602-.32.461-.31.805-.688 1.047-1.137.078-.133.144-.274.2-.418.76 1.281 1.718 2.437 2.956 3.676l2.5 2.484c.016.027.04.055.067.082l1.68 1.68c.034.035.07.062.105.082l2.5 2.48c.718.762 1.957 1.719 3.75 2.918-.262.086-.512.211-.75.367a3.287 3.287 0 0 0-1.246 1.633c-.23-.34-.453-.66-.668-.96l.554-.552a.39.39 0 0 0 0-.562.39.39 0 0 0-.562 0l-.461.465a44.874 44.874 0 0 0-.484-.64l.386-.384a.39.39 0 0 0 0-.562.39.39 0 0 0-.562 0l-.324.324c-.286-.344-.551-.64-.797-.883zm10.727 7.96l-.84-1.44c-.082-.122-.203-.2-.32-.2h-.204c-.918-.082-1.761.437-2.16 1.238l-.082.203a.305.305 0 0 0 0 .36l.883 1.52a2.354 2.354 0 0 1-1.281-.68c-.407-.438-.668-.993-.692-1.586a.648.648 0 0 0 .008-.094c0-.801.402-1.524 1.082-1.965.36-.238.8-.398 1.281-.398a.368.368 0 0 0 .168-.036c.438.024.871.18 1.235.434a2.442 2.442 0 0 1 .922 2.645zm0 0"/>
</svg>
